X: 5
T: The Spike Island Lasses
R: reel
M: 4/4
L: 1/8
K: Dmaj
|:cAGB ADDE|FDAD FGAB|cAGB ADFG|Adde fded|
cAGB ADDE|FDAD FGAB|cAGB AGFG|AddA d3 e||
|:f3d e3c|dFed ^cA A2|FedF eA^ce|Add^c d2 ^cd|
ea a2 efge|(3Bcd ed cAGG|AddA d3 ^ c|Adde fded||
|:cAGB A3c|B3A GBDB|cAGB A2 FG|Adde fded|
cAGB A3c|BGFA G3B|cAGB AGFG|AddA d3e||
|:fadf adfa|dfaf ge^ce|Adfa dfaf|geaf d3A|
defg a3b|agfa g3e|fafd e3 ^c|d^cde fded||
|:fadf a2 df|adfa dfad |fadf adfa |geaf d3A |
defg a3b |agfa g3e | fafd ege^c |d^cde fded ||


Tune 737	Setting 22697

